X:1
T:Quiet and Snug
T:Quiet and Snug
T:Alexander McGlashan
C:Alexander McGlashan
L:1/8
M:4/4
K:G
V:1 treble 
V:1
 D |"G" [DG]>B"Bm" d>A"G" [Dd]/B/G D>G |"C" EG"G"Dd"Am" [Ec]/B/A"D" [Fc]/B/A | %3
"G" [DG]>B"Bm" d>A"G" [Dd]/B/G D>G |"Am" EA"D"[CF]D"G" [B,G]/G/G z D | %5
"G" [DG]>B"Bm" d>A"G" [Dd]/B/G D>G |"C" EG"G"Dd"Am" [Ec]/B/A"D" [Fc]/B/A | %7
"G" [DG]>B"Bm" d>A"G" [Dd]/B/G D>G |"Am" EA"D"[CF]D"G" [B,G]/G/G z || d | %10
"G" d<B [Gg]<f"C" [Ge]dcB |"Am" Aa"A7"[Aa]g"D" [Af]>e[Ad]>c |"G" [GB]dgd"C" [Ge]g"G"[Gd]g | %13
"C" [Ec]e"D7"[Dd]c"G" [DB]/A/G z d |"G" d<B [Gg]<f"C" [Ge]dcB |"Am" Aa"A7"[Aa]g"D" [Af]>e[Ad]>c | %16
"G" [GB]dgd"C" [Ge]g"G"[Gd]g |"Am" [Ge]a"D7"[Af]d"G" [Gg]2 z |] %18

